X:1
T:Étude op. 30 no 13
T:Étude op. 30 no 13
T:Joachim Andersen
C:Joachim Andersen
L:1/8
Q:1/4=92
M:9/8
K:F#
V:1 treble nm="Flûte" snm="Fl."
V:1
"^Andantino"!mf! (a/b/c'/d'/g/a/!>(! b/c'/f/g/a/b/ a/g/e/c/B/G/)!>)! | %1
!mf! (a/b/c'/d'/g/a/!>(! b/c'/f/g/a/b/ a/g/e/c/B/G/)!>)! | %2
!p! (g/f/g/f/c/A/)"_cresc." (b/a/b/a/f/c/) (d'/c'/d'/c'/a/f/) | %3
 (c/d/e/f/)(e/f/ g/a/)(g/a/b/c'/) (d'/c'/b/g/e/c/) | %4
!mf! (a/b/c'/d'/g/a/!>(! b/c'/f/g/a/b/ a/g/e/c/B/G/)!>)! | %5
!mf! (a/b/c'/d'/g/a/!>(! b/c'/f/g/a/b/ a/g/e/c/B/G/)!>)! | %6
!p!!<(! (A/B/c/d/)(c/d/ e/f/)(e/f/g/a/)!<)! (^^g/a/b/^b/c'/^^c'/) | %7
"_cresc." (d'/c'/b/g/e/c/) (g/f/a/f/c/A/!mf! F3) | %8
!f! (c/d/e/f/)(e/f/ g/a/)!p!(g/!<(!a/^b/c'/ e'/d'/b/g/f/d/)!<)! | %9
!f! (c/d/e/f/)(e/f/ g/a/)!p!(g/!<(!a/^b/c'/ e'/d'/b/g/f/d/)!<)! | %10
!f! (f'/e'/c'/g/e/c/) (d'/c'/g/e/c/G/) (a/g/e/c/G/E/) | %11
 (e/d/^B/G/B/d/ B/d/f/d/f/a/ g/=g/f/e/=e/d/) | %12
 (c/d/e/f/)(e/f/ g/a/)!p!(g/!<(!a/^b/c'/ e'/d'/b/g/f/d/)!<)! | %13
!f! (c/d/e/f/)(e/f/ g/a/)!p!(g/!<(!a/^b/c'/ e'/d'/b/g/f/d/)!<)! | %14
!f! (a/g/e/c/f/e/ c/G/d/c/G/E/ ^^D/E/G/c/e/g/) | %15
 (^^g/a/b/^b/e'/d'/) (d'/c'/^g/e/a/g/ e/c/G/c/E/G/) || %16
!mf! (a/b/c'/d'/g/a/!>(! b/c'/f/g/a/b/ a/g/e/c/B/G/)!>)! | %17
!mf! (a/b/c'/d'/g/a/!>(! b/c'/f/g/a/b/ a/g/e/c/B/G/)!>)! | %18
!p! (g/f/g/f/c/A/)"_cresc." (b/a/b/a/f/c/) (d'/c'/d'/c'/a/f/) | %19
 (c/d/e/f/)(e/f/ g/a/)(g/a/b/c'/) (d'/c'/b/g/e/c/) | %20
!mf! (a/b/c'/d'/g/a/ b/c'/!>(!f/g/a/b/ a/g/e/c/B/G/)!>)! | %21
!mf! (a/b/c'/d'/g/a/!>(! b/c'/f/g/a/b/ a/g/e/c/B/G/)!>)! | %22
!p! (g/f/g/f/c/A/)!<(! (a/g/a/g/f/^B/) (c/e/!<)!g/=b/c'/e'/) | %23
!mf! (g'/f'/c'/a/f/c/) (b/a/f/c/A/G/) (F/A/c/=e/f/a/ | %24
 c'/b/f/d/B/F/) (d'/c'/b/g/^e/c/) (B/c/e/g/c'/e'/ | %25
 g'/f'/c'/a/f/c/) (b/a/f/c/A/G/) (F/A/c/=e/f/a/) | %26
 (c'/b/f/d/B/F/) (d'/c'/b/g/^e/c/) (B/c/e/g/c'/e'/ | %27
 f'/e'/)(d'/c'/d'/c'/ b/a/g/f/e/f/) (a/f/d/f/a/d'/ | %28
 c'/d'/)(e'/f'/a/b/ ^b/c'/)(d/e/f/g/ a/f/d/f/a/d'/) | %29
 (c'/d'/e'/f'/)(a/b/ ^b/c'/)(f/g/^^g/a/) (c/d/e/f/)(A/B/ | %30
 ^B/c/)!<(!(F/G/A/=B/ ^B/c/^^c/d/^^d/e/!<)! f/A/^c/f/a/c'/) |!mf! f'6- f' z z |] %32

